neru-light-classic/32x32/apps/kig.svg

<?xml version="1.0" encoding="UTF-8" standalone="no"?>
<svg
   xmlns:dc="http://purl.org/dc/elements/1.1/"
   xmlns:cc="http://creativecommons.org/ns#"
   xmlns:rdf="http://www.w3.org/1999/02/22-rdf-syntax-ns#"
   xmlns:svg="http://www.w3.org/2000/svg"
   xmlns="http://www.w3.org/2000/svg"
   xmlns:sodipodi="http://sodipodi.sourceforge.net/DTD/sodipodi-0.dtd"
   xmlns:inkscape="http://www.inkscape.org/namespaces/inkscape"
   height="32"
   width="32"
   version="1"
   id="svg10"
   sodipodi:docname="kig.svg"
   inkscape:version="0.92.1 r">
  <metadata
     id="metadata16">
    <rdf:RDF>
      <cc:Work
         rdf:about="">
        <dc:format>image/svg+xml</dc:format>
        <dc:type
           rdf:resource="http://purl.org/dc/dcmitype/StillImage" />
      </cc:Work>
    </rdf:RDF>
  </metadata>
  <defs
     id="defs14" />
  <sodipodi:namedview
     pagecolor="#ffffff"
     bordercolor="#666666"
     borderopacity="1"
     objecttolerance="10"
     gridtolerance="10"
     guidetolerance="10"
     inkscape:pageopacity="0"
     inkscape:pageshadow="2"
     inkscape:window-width="640"
     inkscape:window-height="480"
     id="namedview12"
     showgrid="false"
     inkscape:zoom="8.8125"
     inkscape:cx="-5.5602837"
     inkscape:cy="16"
     inkscape:current-layer="svg10" />
  <rect
     style="opacity:1;fill:#d9974e;fill-opacity:1;fill-rule:evenodd;stroke:none;stroke-width:1.03534329;stroke-linecap:round;stroke-linejoin:bevel;stroke-miterlimit:4;stroke-dasharray:none;stroke-dashoffset:0;stroke-opacity:1"
     id="rect4497-3"
     width="28.203388"
     height="28.203388"
     x="1.8983059"
     y="1.8983059"
     ry="5.575182" />
  <path
     d="M 13,6.0001002 A 7,7 0 0 0 6,13.0001 7,7 0 0 0 12,19.922 V 26 H 26 V 12 H 19.92 A 7,7 0 0 0 13,6.0000002 Z m 0,1 A 6,6 0 0 1 18.9141,12.0001 h -6.914 v 6.91 a 6,6 0 0 1 -5,-5.91 6,6 0 0 1 6,-5.9999998 z M 13,13.0001 h 6 a 6,6 0 0 1 -6,6 z m 7,0 h 5 v 12 H 13 v -5 a 7,7 0 0 0 7,-7 z"
     id="path8"
     inkscape:connector-curvature="0"
     style="fill:#4d4d4d" />
</svg>

<svg xmlns="http://www.w3.org/2000/svg" height="32" width="32" version="1"><rect width="28.203" height="28.203" x="1.898" y="1.898" ry="5.575" fill="#d9974e" fill-rule="evenodd"/><path d="M13 6a7 7 0 0 0-7 7 7 7 0 0 0 6 6.922V26h14V12h-6.08A7 7 0 0 0 13 6zm0 1a6 6 0 0 1 5.914 5H12v6.91A6 6 0 0 1 7 13a6 6 0 0 1 6-6zm0 6h6a6 6 0 0 1-6 6zm7 0h5v12H13v-5a7 7 0 0 0 7-7z" fill="#4d4d4d"/></svg>
